project/img/footer-icon.svg

<svg width="20" height="21" viewBox="0 0 20 21" fill="none" xmlns="http://www.w3.org/2000/svg">
<path d="M19.4141 14.6406C19.8047 14.7969 20 15.0833 20 15.5C20 15.5781 19.987 15.6432 19.9609 15.6953L19.0234 19.7578C18.9974 19.888 18.9323 20.0052 18.8281 20.1094C18.75 20.2396 18.6458 20.3307 18.5156 20.3828C18.3854 20.4609 18.2552 20.5 18.125 20.5C13.125 20.5 8.85417 18.7292 5.3125 15.1875C1.77083 11.6458 0 7.375 0 2.375C0 2.24479 0.0260417 2.11458 0.078125 1.98438C0.15625 1.85417 0.247396 1.75 0.351562 1.67188C0.481771 1.56771 0.611979 1.5026 0.742188 1.47656L4.80469 0.539062C4.85677 0.513021 4.92188 0.5 5 0.5C5.41667 0.5 5.70312 0.695312 5.85938 1.08594L7.73438 5.46094C7.78646 5.5651 7.8125 5.68229 7.8125 5.8125C7.8125 6.09896 7.69531 6.34635 7.46094 6.55469L5.11719 8.46875C5.71615 9.77083 6.69271 11.099 8.04688 12.4531C9.40104 13.8073 10.7292 14.7839 12.0312 15.3828L13.9453 13.0391C14.1536 12.8047 14.401 12.6875 14.6875 12.6875C14.8177 12.6875 14.9349 12.7135 15.0391 12.7656L19.4141 14.6406Z" fill="white"/>
</svg>

<svg width="20" height="21" fill="none" xmlns="http://www.w3.org/2000/svg"><path d="M19.414 14.64c.39.157.586.443.586.86a.434.434 0 01-.04.195l-.937 4.063a.68.68 0 01-.195.351.635.635 0 01-.312.274.754.754 0 01-.391.117c-5 0-9.27-1.77-12.813-5.313C1.772 11.646 0 7.375 0 2.376c0-.13.026-.26.078-.39.078-.13.17-.235.274-.313a.92.92 0 01.39-.195L4.805.539A.435.435 0 015 .5c.417 0 .703.195.86.586L7.733 5.46a.775.775 0 01.079.351c0 .287-.118.534-.352.743L5.117 8.469c.6 1.302 1.576 2.63 2.93 3.984s2.682 2.33 3.984 2.93l1.914-2.344c.209-.234.456-.351.742-.351.13 0 .248.025.352.078l4.375 1.875z" fill="#fff"/></svg>
